assets/svg/icon-large-resource-compliance-blue.svg

<?xml version="1.0" encoding="UTF-8" standalone="no"?>
<svg width="53px" height="64px" viewBox="0 0 53 64" version="1.1" xmlns="http://www.w3.org/2000/svg" xmlns:xlink="http://www.w3.org/1999/xlink">
    <!-- Generator: Sketch 3.8.3 (29802) - http://www.bohemiancoding.com/sketch -->
    <title>blue/icon-large-resource-compliance-blue</title>
    <desc>Created with Sketch.</desc>
    <defs></defs>
    <g id="blue,-base" stroke="none" stroke-width="1" fill="none" fill-rule="evenodd">
        <g id="icons,-large-detailed-(blue)" transform="translate(-279.000000, -919.000000)" fill="#1055FF">
            <g id="blue/icon-large-resource-compliance-blue" transform="translate(279.000000, 919.000000)">
                <path d="M0.345598411,40.6290206 C0.40758614,40.9004887 0.549266102,41.3729492 0.795261443,42.01754 C1.1966965,43.0694353 1.75163161,44.2353605 2.48459972,45.4861298 C4.56275262,49.032382 7.64605713,52.56767 11.9256884,55.8562628 C15.8486738,58.8707985 20.6034046,61.5319061 26.265125,63.7470675 L26.6595463,63.9013858 L27.0366231,63.7085249 C27.0887581,63.6818598 27.1873307,63.6308651 27.3292537,63.5565556 C27.5642532,63.4335121 27.8364137,63.2891904 28.1426495,63.1246038 C29.016016,62.6552126 29.9885377,62.1169776 31.0355568,61.5179776 C34.0276311,59.8062108 37.0201207,57.9490411 39.8167803,56.0099069 C43.8548495,53.2100103 47.1402951,50.4762879 49.4155347,47.8787412 C51.6677561,45.3074734 52.8941176,42.9114497 52.8941176,40.6865291 L52.8941176,3.93582888 L52.8941176,3.13487829 L52.1034787,3.00676935 C52.0689154,3.00116898 52.0021395,2.99042939 51.9047742,2.97489302 C51.7429412,2.9490697 51.5537677,2.91913489 51.3388766,2.88543102 C50.7253948,2.78921157 50.0285366,2.68202815 49.2612789,2.56661958 C47.069435,2.23692911 44.7519768,1.9072504 42.4125429,1.59948408 C40.6779895,1.37129336 38.9960453,1.16387445 37.3893178,0.982027858 C32.8923229,0.473065864 29.2096504,0.188235294 26.6080495,0.188235294 C23.9919735,0.188235294 20.2996745,0.569002114 15.7921886,1.24920123 C14.1835968,1.49194469 12.4999224,1.76878775 10.7637086,2.07333328 C8.42238326,2.48402015 6.10321717,2.92391569 3.90974109,3.36383035 C3.14188385,3.51782868 2.44444719,3.66085852 1.830402,3.78926895 C1.6152631,3.83425926 1.42584568,3.8742238 1.26377199,3.90870612 C1.16618405,3.92946864 1.09918876,3.94383514 1.06440878,3.95134911 L0.321981424,4.11174526 L0.321981424,4.87130125 L0.321981424,40.4195027 L0.321981424,40.5255927 L0.345598411,40.6290206 L0.345598411,40.6290206 Z M2.18071738,40.2099848 L2.20433437,40.4195027 L2.20433437,4.87130125 L1.46190701,5.79125339 C1.49478376,5.7841506 1.55985298,5.77019713 1.65548836,5.74985003 C1.81545354,5.71581631 2.00273588,5.67630224 2.21570868,5.63176491 C2.82483977,5.50438212 3.5172396,5.36238523 4.2798874,5.20943169 C6.45928283,4.77234099 8.76376225,4.33523119 11.0889229,3.92737973 C12.8110739,3.62530092 14.4801377,3.35086026 16.0730638,3.11048083 C20.4946744,2.44324066 24.108288,2.07058824 26.6080495,2.07058824 C29.1222863,2.07058824 32.7455264,2.3508221 37.1776279,2.85243957 C38.7724183,3.03293515 40.4432124,3.23897902 42.1670237,3.46575656 C44.4940759,3.77189398 46.8002631,4.09996929 48.9812908,4.42803282 C49.7445381,4.54283815 50.4375163,4.6494248 51.0472109,4.74505026 C51.2604314,4.77849211 51.4479577,4.80816626 51.6081636,4.83372997 C51.7040216,4.84902582 51.7693102,4.8595262 51.8024037,4.8648884 L51.0117647,3.93582888 L51.0117647,40.6865291 C51.0117647,42.3613158 49.9795779,44.3779674 47.9995646,46.6384665 C45.8435472,49.0999023 42.666668,51.7432898 38.7442104,54.4630242 C35.996675,56.3680968 33.0489556,58.1974816 30.1008209,59.8841106 C29.0687669,60.474549 28.1107206,61.0047728 27.2515262,61.4665472 C26.9513656,61.6278686 26.6851947,61.7690141 26.4561154,61.8889579 C26.3195911,61.9604407 26.2263445,62.0086801 26.179476,62.0326516 L26.9509741,61.994109 C21.4522564,59.8427227 16.8529802,57.2686193 13.0726273,54.3636866 C8.98833484,51.2251978 6.06587001,47.8743271 4.10863855,44.5344206 C3.42922214,43.3750343 2.91895545,42.3029579 2.55390028,41.3463902 C2.42804872,41.0166167 2.32954558,40.7263415 2.25540997,40.4791213 C2.21310856,40.3380587 2.189205,40.2471554 2.18071738,40.2099848 L2.18071738,40.2099848 Z" id="Path-32"></path>
                <ellipse id="Oval-9" cx="26.4074303" cy="12.4887191" rx="5.7510836" ry="5.74647315"></ellipse>
                <path d="M23.1529412,51.3903501 C22.9774509,51.2822823 22.8051957,51.1713164 22.636159,51.0575398 C21.662346,50.4020778 20.8614906,49.6956775 20.2213018,48.9836149 C19.8242049,48.5419359 19.562423,48.1840437 19.4228505,47.9536304 L19.5442762,48.1183137 C19.4039667,47.9602767 19.2327234,47.7134225 19.0713434,47.379055 C18.3642092,45.9139249 18.4855605,44.1183634 19.8876002,42.2549173 C20.8666877,40.9536155 22.1714583,40.5810673 25.4721593,40.1672049 C26.6805247,40.0156925 26.9061398,39.986039 27.4304196,39.9032498 C30.1142125,39.479451 31.7235924,38.7722923 32.7033972,37.3676129 C33.185873,36.6759201 33.1407283,36.2704895 32.633321,35.7649196 C32.1162748,35.2497458 31.1866644,34.7571608 29.9670496,34.3275563 L29.9670496,31.9496475 C30.0564521,31.9772559 30.1454015,32.0053425 30.2338522,32.0339123 C31.9742931,32.5960785 33.3420142,33.2823664 34.2276505,34.1647955 C35.4972908,35.429838 35.6778738,37.0516002 34.5560456,38.659889 C33.139082,40.6912933 31.0170999,41.6236886 27.7827455,42.1344266 C27.2244587,42.2225859 26.9904378,42.2533442 25.7531841,42.4084788 C23.1484736,42.7350736 22.1354904,43.0243084 21.6925855,43.6129717 C20.8154472,44.7787732 20.7551431,45.6710563 21.105623,46.3972251 C21.1695215,46.5296181 21.2235566,46.6075118 21.2334327,46.6186357 L21.3016351,46.6954552 L21.3548585,46.7833191 C21.3642639,46.798846 21.3997464,46.8522504 21.4626194,46.9382065 C21.5782184,47.0962464 21.7239268,47.2763975 21.9010551,47.473412 C22.2522938,47.8640843 22.6684271,48.2573435 23.1529412,48.6406131 L23.1529412,51.3903501 Z M29.9294118,53.7585925 C30.6691254,53.8662886 31.439512,53.9395158 32.2410173,53.9759185 L32.3435028,51.7194211 C31.49677,51.6809643 30.6925139,51.5977465 29.9294118,51.4733867 L29.9294118,53.7585925 Z M23.1529412,32.6205473 C22.6001064,32.4288524 22.0545029,32.2096203 21.5286587,31.9606455 C18.1043678,30.3393248 16.3581177,27.8684041 17.744596,24.6087177 C18.8982228,21.8964777 22.6154056,20.4555481 28.1484905,19.7649032 C31.2908248,19.372674 34.5809759,19.2809707 37.4434756,19.3566863 C37.6242321,19.3614674 37.7842625,19.3666037 37.9220559,19.3717598 C38.0060221,19.3749017 38.0647077,19.3773928 38.0965996,19.3788983 L37.9900877,21.6352092 C37.9654442,21.6340459 37.9141023,21.6318665 37.8375922,21.6290036 C37.7079252,21.6241516 37.5561332,21.6192797 37.3837486,21.61472 C34.6249337,21.541747 31.4388468,21.6305499 28.4282679,22.0063332 C23.6826237,22.598689 20.535272,23.8187291 19.8232059,25.4928356 C19.0342455,27.3477247 20.0248376,28.7493994 22.4952835,29.9190971 C22.7096811,30.0206093 22.9294173,30.116878 23.1529412,30.20793 L23.1529412,32.620549 Z" id="Combined-Shape"></path>
                <path d="M28.6811145,38.1548564 L28.6811145,23.2879257 L24.4012384,24.2508978 L24.4012384,38.8552666 L28.6811145,38.1548564 L28.6811145,38.1548564 Z M28.6811145,43.3991793 L28.6811145,52.9787433 C28.6811145,54.161068 27.7206268,55.1195313 26.5411765,55.1195313 C25.3593213,55.1195313 24.4012384,54.1613097 24.4012384,52.9787433 L24.4012384,43.9595076 L28.6811145,43.3991793 L28.6811145,43.3991793 Z M28.6811145,18.1696594 L28.6811145,17.7032021 C28.6811145,16.5206356 27.7230316,15.562414 26.5411765,15.562414 C25.3617262,15.562414 24.4012384,16.5208775 24.4012384,17.7032021 L24.4012384,19.0256347 L28.6811145,18.1696594 L28.6811145,18.1696594 Z" id="Rectangle-5"></path>
            </g>
        </g>
    </g>
</svg>

<svg width="53" height="64" viewBox="0 0 53 64" xmlns="http://www.w3.org/2000/svg"><title>blue/icon-large-resource-compliance-blue</title><g fill="#1055FF" fill-rule="evenodd"><path d="M.346 40.629c.062.271.203.744.45 1.389a23.464 23.464 0 0 0 1.689 3.468c2.078 3.546 5.161 7.082 9.44 10.37 3.924 3.015 8.678 5.676 14.34 7.891l.395.154.377-.192.292-.152a125.588 125.588 0 0 0 3.706-2.039c2.993-1.712 5.985-3.569 8.782-5.508 4.038-2.8 7.323-5.534 9.599-8.131 2.252-2.572 3.478-4.968 3.478-7.192V3.135l-.79-.128a93.01 93.01 0 0 0-.765-.122A376.504 376.504 0 0 0 42.413 1.6a280.726 280.726 0 0 0-5.024-.617C32.892.473 29.21.188 26.608.188 23.992.188 20.3.57 15.792 1.25c-1.608.243-3.292.52-5.028.824a289.069 289.069 0 0 0-9.7 1.878l-.742.16v36.415l.024.103zm1.835-.419l.023.21V4.87l-.742.92a70.39 70.39 0 0 1 .754-.16 287.208 287.208 0 0 1 8.873-1.704c1.722-.302 3.391-.576 4.984-.817 4.422-.667 8.035-1.04 10.535-1.04 2.514 0 6.138.28 10.57.782 1.594.18 3.265.387 4.989.614a374.643 374.643 0 0 1 9.635 1.399l-.79-.93v36.752c0 1.674-1.032 3.691-3.012 5.951-2.156 2.462-5.333 5.105-9.256 7.825-2.747 1.905-5.695 3.734-8.643 5.421a123.714 123.714 0 0 1-3.645 2.005l-.277.144.772-.039c-5.499-2.151-10.098-4.725-13.878-7.63-4.085-3.139-7.007-6.49-8.964-9.83a21.593 21.593 0 0 1-1.555-3.188c-.126-.33-.224-.62-.299-.867a4.954 4.954 0 0 1-.074-.269z"/><ellipse cx="26.407" cy="12.489" rx="5.751" ry="5.746"/><path d="M23.153 51.39a15.186 15.186 0 0 1-.517-.332 12.99 12.99 0 0 1-2.415-2.074 7.389 7.389 0 0 1-.798-1.03l.121.164a3.275 3.275 0 0 1-.473-.739c-.707-1.465-.585-3.26.817-5.124.979-1.301 2.283-1.674 5.584-2.088a52.12 52.12 0 0 0 1.958-.264c2.684-.424 4.294-1.13 5.273-2.535.483-.692.438-1.098-.07-1.603-.517-.515-1.446-1.008-2.666-1.437V31.95c.09.027.178.055.267.084 1.74.562 3.108 1.248 3.994 2.13 1.27 1.266 1.45 2.888.328 4.496-1.417 2.031-3.539 2.964-6.773 3.474-.559.089-.793.12-2.03.274-2.605.327-3.618.616-4.06 1.205-.878 1.166-.938 2.058-.587 2.784.064.133.118.21.127.222l.069.076.053.088c.01.016.045.07.108.155.115.158.26.338.438.535.351.391.767.784 1.252 1.168v2.75zm6.776 2.369c.74.107 1.51.18 2.312.217l.103-2.257a20.9 20.9 0 0 1-2.415-.246v2.286zM23.153 32.62a16.217 16.217 0 0 1-1.624-.66c-3.425-1.622-5.17-4.093-3.784-7.352 1.153-2.713 4.87-4.153 10.403-4.844 3.143-.392 6.433-.484 9.295-.408a44.043 44.043 0 0 1 .654.022l-.107 2.256a41.802 41.802 0 0 0-.606-.02c-2.76-.073-5.945.016-8.956.391-4.745.593-7.893 1.813-8.605 3.487-.789 1.855.202 3.256 2.672 4.426.215.102.434.198.658.289v2.413z"/><path d="M28.681 38.155V23.288l-4.28.963v14.604l4.28-.7zm0 5.244v9.58a2.14 2.14 0 0 1-4.28 0v-9.02l4.28-.56zm0-25.23v-.466a2.14 2.14 0 1 0-4.28 0v1.323l4.28-.856z"/></g></svg>
